korla/status/symbolic/view-private-symbolic.svg

<svg style="clip-rule:evenodd;fill-rule:evenodd;stroke-linejoin:round;stroke-miterlimit:2" version="1.1" viewBox="0 0 16 16" xmlns="http://www.w3.org/2000/svg">
 <path d="m4 8c-1.66 0-3 1.34-3 3s1.34 3 3 3c1.56 0 2.82-1.2 2.97-2.72 0.28-0.414 0.66-0.78 1.03-0.78s0.852 0.346 1.03 0.78c0.15 1.52 1.41 2.72 2.97 2.72 1.66 0 3-1.34 3-3s-1.34-3-3-3c-1.39 0-2.54 0.97-2.87 2.25-0.36-0.14-0.73-0.25-1.13-0.25s-0.77 0.11-1.12 0.25c-0.34-1.28-1.49-2.25-2.88-2.25zm0 1.25c0.97 0 1.75 0.78 1.75 1.75s-0.78 1.75-1.75 1.75-1.75-0.78-1.75-1.75 0.78-1.75 1.75-1.75zm8 0c0.97 0 1.75 0.78 1.75 1.75s-0.78 1.75-1.75 1.75-1.75-0.78-1.75-1.75 0.78-1.75 1.75-1.75z" style="fill-rule:nonzero;fill:rgb(223,223,223)"/>
 <path d="m4.834 0.921c-0.627 0.416-1.584 3.794-1.584 3.794h9.5s-0.957-3.378-1.584-3.794c-0.626-0.417-2.111 0.5-3.166 0.5s-2.54-0.917-3.166-0.5zm-1.834 4.079-3 2h16l-3-2h-10z" style="fill-opacity:.5;fill-rule:nonzero;fill:rgb(223,223,223)"/>
</svg>

<svg xmlns="http://www.w3.org/2000/svg" width="16" height="16" version="1.1">
 <path style="fill:#dfdfdf" d="M 4,8 C 2.34,8 1,9.34 1,11 1,12.66 2.34,14 4,14 5.56,14 6.82,12.8 6.97,11.28 7.27,11.1 7.63,11 8,11 8.37,11 8.73,11.1 9.03,11.28 9.18,12.8 10.44,14 12,14 13.66,14 15,12.66 15,11 15,9.34 13.66,8 12,8 10.61,8 9.46,8.97 9.13,10.25 8.77,10.11 8.4,10 8,10 7.6,10 7.23,10.11 6.88,10.25 6.54,8.97 5.39,8 4,8 Z M 4,9.25 C 4.97,9.25 5.75,10.03 5.75,11 5.75,11.97 4.97,12.75 4,12.75 3.03,12.75 2.25,11.97 2.25,11 2.25,10.03 3.03,9.25 4,9.25 Z M 12,9.25 C 12.97,9.25 13.75,10.03 13.75,11 13.75,11.97 12.97,12.75 12,12.75 11.03,12.75 10.25,11.97 10.25,11 10.25,10.03 11.03,9.25 12,9.25 Z"/>
 <path style="fill:#dfdfdf" d="M 4,1 3.25,4 H 12.75 L 12,1 8,1.5 Z M 3,5 0,7 H 16 L 13,5 Z"/>
</svg>
